src/components/patterns/f.svg

<?xml version="1.0" encoding="UTF-8" standalone="no"?>
<svg xmlns="http://www.w3.org/2000/svg" version="1.1" width="4.001037365484107in" height="3.4670508075688766in" viewBox="0 0 288.07469031485573 249.62765814495913">
<title>kumiko - Component A</title>
<g>
  <path d="M0.037345157427836284 249.12 L144.03734515742784 0 L144.33044172407628 0.21234185504084735 L288.07469031485573 249.47999999999996 L287.7442485907794 249.6276581449591 L0 249.48000000000008 " fill="none" stroke="#000000" stroke-width="0.72" />
  <g>
    <path d="M47.898616833728425 166.32 L95.47860950788845 249.52899557309058 " fill="none" stroke="#000000" stroke-width="0.72" />
    <path d="M192.1067093192775 83.06141898414575 L96.25560899251417 82.66240356530054 " fill="none" stroke="#000000" stroke-width="0.72" />
    <path d="M192.10670931927757 249.5785810158542 L240.37781697188086 166.7686008616088 " fill="none" stroke="#000000" stroke-width="0.72" />
  </g>
  <g>
    <path d="M144.03734515742784 166.32 L107.8986734282966 145.45532814903058 " fill="none" stroke="#000000" stroke-width="0.72" />
    <path d="M144.03734515742784 166.32 L180.17601688655907 145.45532814903055 " fill="none" stroke="#000000" stroke-width="0.72" />
    <path d="M144.03734515742784 166.32 L144.03734515742786 208.04934370193888 " fill="none" stroke="#000000" stroke-width="0.72" />
  </g>
  <g>
    <path d="M71.76000169916536 208.04934370193894 L144.03734515742784 82.86131259612222 " fill="none" stroke="#000000" stroke-width="0.72" />
    <path d="M144.03734515742778 82.86131259612222 L216.31468861569033 208.04934370193888 " fill="none" stroke="#000000" stroke-width="0.72" />
    <path d="M216.3146886156904 208.04934370193882 L71.76000169916536 208.04934370193894 " fill="none" stroke="#000000" stroke-width="0.72" />
  </g>
</g>
</svg>
<!--
{"app":"Cuttle","type":"Project","version":15,"payload":{"name":"Project","units":"in","hairlineStrokeWidth":0.01,"tolerance":0.001,"components":[{"name":"Component A","parameters":[],"isPassThrough":false,"isImmutable":false,"isAspectRatioLocked":false,"viewport":{"pixelsPerUnit":128.130666133502,"center":{"x":0.14630783897332256,"y":_h0.6377588341198908,"@class":"Vec","@id":"0"},"@class":"Viewport","@id":"1"},"element":{"name":"","transform":null,"modifiers":[],"fill":null,"stroke":null,"children":[{"name":"Path 1","transform":null,"modifiers":[],"fill":null,"stroke":{"args":{"@id":"2"},"isEnabled":true,"definition":{"@builtin":"StrokeDefinition"},"@class":"Instance","@id":"3"},"children":[{"name":"outer 1","transform":null,"modifiers":[{"args":{"repetitions":{"jsCode":"3","@class":"Expression","@id":"4"},"@id":"5"},"isEnabled":true,"definition":{"@builtin":"RotationalRepeatDefinition"},"@class":"Instance","@id":"6"}],"fill":null,"stroke":null,"children":[{"name":"Anchor 3","transform":null,"modifiers":[],"fill":null,"stroke":null,"children":[],"isLocked":false,"isVisible":true,"base":{"args":{"position":{"jsCode":"Vec(_h2.00, 1.73_h.58)","@class":"Expression","@id":"7"},"@id":"8"},"isEnabled":true,"definition":{"@builtin":"AnchorDefinition"},"@class":"Instance","@id":"9"},"@class":"Element","@id":"10"},{"name":"Anchor 4","transform":null,"modifiers":[],"fill":null,"stroke":null,"children":[],"isLocked":false,"isVisible":true,"base":{"args":{"position":{"jsCode":"Vec(0, _h1.73_h0.58)","@class":"Expression","@id":"11"},"@id":"12"},"isEnabled":true,"definition":{"@builtin":"AnchorDefinition"},"@class":"Instance","@id":"13"},"@class":"Element","@id":"14"}],"isLocked":false,"isVisible":true,"base":{"args":{"@id":"15"},"isEnabled":true,"definition":{"@builtin":"GroupDefinition"},"@class":"Instance","@id":"16"},"@class":"Element","@id":"17"},{"name":"outer","transform":null,"modifiers":[{"args":{"repetitions":{"jsCode":"3","@class":"Expression","@id":"18"},"@id":"19"},"isEnabled":true,"definition":{"@builtin":"RotationalRepeatDefinition"},"@class":"Instance","@id":"20"}],"fill":null,"stroke":null,"children":[{"name":"Anchor 1","transform":null,"modifiers":[],"fill":null,"stroke":null,"children":[],"isLocked":false,"isVisible":true,"base":{"args":{"position":{"jsCode":"Vec(_h2.00, 1.73_h.58)","@class":"Expression","@id":"21"},"@id":"22"},"isEnabled":true,"definition":{"@builtin":"AnchorDefinition"},"@class":"Instance","@id":"23"},"@class":"Element","@id":"24"},{"name":"Anchor 2","transform":null,"modifiers":[],"fill":null,"stroke":null,"children":[],"isLocked":false,"isVisible":true,"base":{"args":{"position":{"jsCode":"Vec(0.00, 0.00)","@class":"Expression","@id":"25"},"handleIn":{"jsCode":"Vec(0.00, 0.00)","@class":"Expression","@id":"26"},"handleOut":{"jsCode":"Vec(0.00, 0.00)","@class":"Expression","@id":"27"},"@id":"28"},"isEnabled":true,"definition":{"@builtin":"AnchorDefinition"},"@class":"Instance","@id":"29"},"@class":"Element","@id":"30"}],"isLocked":false,"isVisible":false,"base":{"args":{"@id":"31"},"isEnabled":true,"definition":{"@builtin":"GroupDefinition"},"@class":"Instance","@id":"32"},"@class":"Element","@id":"33"},{"name":"outer 2","transform":null,"modifiers":[{"args":{"repetitions":{"jsCode":"3","@class":"Expression","@id":"34"},"@id":"35"},"isEnabled":true,"definition":{"@builtin":"RotationalRepeatDefinition"},"@class":"Instance","@id":"36"}],"fill":null,"stroke":null,"children":[{"name":"Anchor 5","transform":null,"modifiers":[],"fill":null,"stroke":null,"children":[],"isLocked":false,"isVisible":true,"base":{"args":{"position":{"jsCode":"Vec(_h0.4941288025297419, _h0.28589155921803644)","@class":"Expression","@id":"37"},"handleIn":{"jsCode":"Vec(0.000, 0.000)","@class":"Expression","@id":"38"},"handleOut":{"jsCode":"Vec(0.000, 0.000)","@class":"Expression","@id":"39"},"@id":"40"},"isEnabled":true,"definition":{"@builtin":"AnchorDefinition"},"@class":"Instance","@id":"41"},"@class":"Element","@id":"42"},{"name":"Anchor 6","transform":null,"modifiers":[],"fill":null,"stroke":null,"children":[],"isLocked":false,"isVisible":true,"base":{"args":{"position":{"jsCode":"Vec(0.004070785647895092, _h2.307050807568877)","@class":"Expression","@id":"43"},"handleIn":{"jsCode":"Vec(0.00, 0.00)","@class":"Expression","@id":"44"},"handleOut":{"jsCode":"Vec(0.00, 0.00)","@class":"Expression","@id":"45"},"@id":"46"},"isEnabled":true,"definition":{"@builtin":"AnchorDefinition"},"@class":"Instance","@id":"47"},"@class":"Element","@id":"48"}],"isLocked":false,"isVisible":false,"base":{"args":{"@id":"49"},"isEnabled":true,"definition":{"@builtin":"GroupDefinition"},"@class":"Instance","@id":"50"},"@class":"Element","@id":"51"},{"name":"outer 3","transform":null,"modifiers":[{"args":{"repetitions":{"jsCode":"3","@class":"Expression","@id":"52"},"@id":"53"},"isEnabled":true,"definition":{"@builtin":"RotationalRepeatDefinition"},"@class":"Instance","@id":"54"}],"fill":null,"stroke":null,"children":[{"name":"Anchor 7","transform":null,"modifiers":[],"fill":null,"stroke":null,"children":[],"isLocked":false,"isVisible":true,"base":{"args":{"position":{"jsCode":"Vec(_h0.49412880252974173, _h0.28589155921803633)","@class":"Expression","@id":"55"},"handleIn":{"jsCode":"Vec(0.000, 0.000)","@class":"Expression","@id":"56"},"handleOut":{"jsCode":"Vec(0.000, 0.000)","@class":"Expression","@id":"57"},"@id":"58"},"isEnabled":true,"definition":{"@builtin":"AnchorDefinition"},"@class":"Instance","@id":"59"},"@class":"Element","@id":"60"},{"name":"Anchor 8","transform":null,"modifiers":[],"fill":null,"stroke":null,"children":[],"isLocked":false,"isVisible":true,"base":{"args":{"position":{"jsCode":"Vec(0.00, 0.00)","@class":"Expression","@id":"61"},"handleIn":{"jsCode":"Vec(0.00, 0.00)","@class":"Expression","@id":"62"},"handleOut":{"jsCode":"Vec(0.00, 0.00)","@class":"Expression","@id":"63"},"@id":"64"},"isEnabled":true,"definition":{"@builtin":"AnchorDefinition"},"@class":"Instance","@id":"65"},"@class":"Element","@id":"66"}],"isLocked":false,"isVisible":false,"base":{"args":{"@id":"67"},"isEnabled":true,"definition":{"@builtin":"GroupDefinition"},"@class":"Instance","@id":"68"},"@class":"Element","@id":"69"}],"isLocked":false,"isVisible":true,"base":{"args":{"@id":"70"},"isEnabled":true,"definition":{"@builtin":"PathDefinition"},"@class":"Instance","@id":"71"},"@class":"Element","@id":"72"},{"name":"Path 4","transform":null,"modifiers":[{"args":{"repetitions":{"jsCode":"3","@class":"Expression","@id":"73"},"@id":"74"},"isEnabled":true,"definition":{"@builtin":"RotationalRepeatDefinition"},"@class":"Instance","@id":"75"}],"fill":null,"stroke":{"args":{"@id":"76"},"isEnabled":true,"definition":{"@builtin":"StrokeDefinition"},"@class":"Instance","@id":"77"},"children":[{"name":"Anchor 13","transform":null,"modifiers":[],"fill":null,"stroke":null,"children":[],"isLocked":false,"isVisible":true,"base":{"args":{"position":{"jsCode":"Vec(_h0.7264203228229682, 1.1556538132429848)","@class":"Expression","@id":"78"},"handleIn":{"jsCode":"Vec(0.00, 0.00)","@class":"Expression","@id":"79"},"handleOut":{"jsCode":"Vec(0.00, 0.00)","@class":"Expression","@id":"80"},"@id":"81"},"isEnabled":true,"definition":{"@builtin":"AnchorDefinition"},"@class":"Instance","@id":"82"},"@class":"Element","@id":"83"},{"name":"Anchor 14","transform":null,"modifiers":[],"fill":null,"stroke":null,"children":[],"isLocked":false,"isVisible":true,"base":{"args":{"position":{"jsCode":"Vec(0.6339977635301242, _h1.2146911193141434)","@class":"Expression","@id":"84"},"handleIn":{"jsCode":"Vec(0.00, 0.00)","@class":"Expression","@id":"85"},"handleOut":{"jsCode":"Vec(0.00, 0.00)","@class":"Expression","@id":"86"},"@id":"87"},"isEnabled":true,"definition":{"@builtin":"AnchorDefinition"},"@class":"Instance","@id":"88"},"@class":"Element","@id":"89"}],"isLocked":false,"isVisible":false,"base":{"args":{"@id":"90"},"isEnabled":true,"definition":{"@builtin":"PathDefinition"},"@class":"Instance","@id":"91"},"@class":"Element","@id":"92"},{"name":"Path 3","transform":null,"modifiers":[{"args":{"repetitions":{"jsCode":"3","@class":"Expression","@id":"93"},"@id":"94"},"isEnabled":true,"definition":{"@builtin":"RotationalRepeatDefinition"},"@class":"Instance","@id":"95"}],"fill":null,"stroke":{"args":{"@id":"96"},"isEnabled":true,"definition":{"@builtin":"StrokeDefinition"},"@class":"Instance","@id":"97"},"children":[{"name":"Anchor 11","transform":null,"modifiers":[],"fill":null,"stroke":null,"children":[],"isLocked":false,"isVisible":true,"base":{"args":{"position":{"jsCode":"Vec(_h1.1849058816824256, 1.155418537898844)","@class":"Expression","@id":"98"},"handleIn":{"jsCode":"Vec(0.00, 0.00)","@class":"Expression","@id":"99"},"handleOut":{"jsCode":"Vec(0.00, 0.00)","@class":"Expression","@id":"100"},"@id":"101"},"isEnabled":true,"definition":{"@builtin":"AnchorDefinition"},"@class":"Instance","@id":"102"},"@class":"Element","@id":"103"},{"name":"Anchor 12","transform":null,"modifiers":[],"fill":null,"stroke":null,"children":[],"isLocked":false,"isVisible":true,"base":{"args":{"position":{"jsCode":"Vec(0.41228822847076435, _h1.599158791130262)","@class":"Expression","@id":"104"},"handleIn":{"jsCode":"Vec(0.00, 0.00)","@class":"Expression","@id":"105"},"handleOut":{"jsCode":"Vec(0.00, 0.00)","@class":"Expression","@id":"106"},"@id":"107"},"isEnabled":true,"definition":{"@builtin":"AnchorDefinition"},"@class":"Instance","@id":"108"},"@class":"Element","@id":"109"}],"isLocked":false,"isVisible":false,"base":{"args":{"@id":"110"},"isEnabled":true,"definition":{"@builtin":"PathDefinition"},"@class":"Instance","@id":"111"},"@class":"Element","@id":"112"},{"name":"Path 6","transform":null,"modifiers":[{"args":{"repetitions":{"jsCode":"3","@class":"Expression","@id":"113"},"@id":"114"},"isEnabled":true,"definition":{"@builtin":"RotationalRepeatDefinition"},"@class":"Instance","@id":"115"}],"fill":null,"stroke":{"args":{"@id":"116"},"isEnabled":true,"definition":{"@builtin":"StrokeDefinition"},"@class":"Instance","@id":"117"},"children":[{"name":"Anchor 17","transform":null,"modifiers":[],"fill":null,"stroke":null,"children":[],"isLocked":false,"isVisible":true,"base":{"args":{"position":{"jsCode":"Vec(_h1.585, 1.1551748970992641)","@class":"Expression","@id":"118"},"@id":"119"},"isEnabled":true,"definition":{"@builtin":"AnchorDefinition"},"@class":"Instance","@id":"120"},"@class":"Element","@id":"121"},{"name":"Anchor 18","transform":null,"modifiers":[],"fill":null,"stroke":null,"children":[],"isLocked":false,"isVisible":true,"base":{"args":{"position":{"jsCode":"Vec(0.21004561620291295, _h1.9498687696605617)","@class":"Expression","@id":"122"},"handleIn":{"jsCode":"Vec(0.000, 0.000)","@class":"Expression","@id":"123"},"handleOut":{"jsCode":"Vec(0.000, 0.000)","@class":"Expression","@id":"124"},"@id":"125"},"isEnabled":true,"definition":{"@builtin":"AnchorDefinition"},"@class":"Instance","@id":"126"},"@class":"Element","@id":"127"}],"isLocked":false,"isVisible":false,"base":{"args":{"@id":"128"},"isEnabled":true,"definition":{"@builtin":"PathDefinition"},"@class":"Instance","@id":"129"},"@class":"Element","@id":"130"},{"name":"Path 7","transform":null,"modifiers":[{"args":{"repetitions":{"jsCode":"3","@class":"Expression","@id":"131"},"@id":"132"},"isEnabled":true,"definition":{"@builtin":"RotationalRepeatDefinition"},"@class":"Instance","@id":"133"}],"fill":null,"stroke":{"args":{"@id":"134"},"isEnabled":true,"definition":{"@builtin":"StrokeDefinition"},"@class":"Instance","@id":"135"},"children":[{"name":"Anchor 19","transform":null,"modifiers":[],"fill":null,"stroke":null,"children":[],"isLocked":false,"isVisible":true,"base":{"args":{"position":{"jsCode":"Vec(_h1.3352601156069364, 0.00)","@class":"Expression","@id":"136"},"handleIn":{"jsCode":"Vec(0.00, 0.00)","@class":"Expression","@id":"137"},"handleOut":{"jsCode":"Vec(0.00, 0.00)","@class":"Expression","@id":"138"},"@id":"139"},"isEnabled":true,"definition":{"@builtin":"AnchorDefinition"},"@class":"Instance","@id":"140"},"@class":"Element","@id":"141"},{"name":"Anchor 20","transform":null,"modifiers":[],"fill":null,"stroke":null,"children":[],"isLocked":false,"isVisible":true,"base":{"args":{"position":{"jsCode":"Vec(_h0.6744268840213803, 1.1556804940707026)","@class":"Expression","@id":"142"},"handleIn":{"jsCode":"Vec(0.00, 0.00)","@class":"Expression","@id":"143"},"handleOut":{"jsCode":"Vec(0.00, 0.00)","@class":"Expression","@id":"144"},"@id":"145"},"isEnabled":true,"definition":{"@builtin":"AnchorDefinition"},"@class":"Instance","@id":"146"},"@class":"Element","@id":"147"}],"isLocked":false,"isVisible":true,"base":{"args":{"@id":"148"},"isEnabled":true,"definition":{"@builtin":"PathDefinition"},"@class":"Instance","@id":"149"},"@class":"Element","@id":"150"},{"name":"Path 5","transform":null,"modifiers":[{"args":{"repetitions":{"jsCode":"3","@class":"Expression","@id":"151"},"@id":"152"},"isEnabled":true,"definition":{"@builtin":"RotationalRepeatDefinition"},"@class":"Instance","@id":"153"}],"fill":null,"stroke":{"args":{"@id":"154"},"isEnabled":true,"definition":{"@builtin":"StrokeDefinition"},"@class":"Instance","@id":"155"},"children":[{"name":"Anchor 15","transform":null,"modifiers":[],"fill":null,"stroke":null,"children":[],"isLocked":false,"isVisible":true,"base":{"args":{"position":{"jsCode":"Vec(0.00, 0.00)","@class":"Expression","@id":"156"},"handleIn":{"jsCode":"Vec(0.00, 0.00)","@class":"Expression","@id":"157"},"handleOut":{"jsCode":"Vec(0.00, 0.00)","@class":"Expression","@id":"158"},"@id":"159"},"isEnabled":true,"definition":{"@builtin":"AnchorDefinition"},"@class":"Instance","@id":"160"},"@class":"Element","@id":"161"},{"name":"Anchor 16","transform":null,"modifiers":[],"fill":null,"stroke":null,"children":[],"isLocked":false,"isVisible":true,"base":{"args":{"position":{"jsCode":"Vec(_h0.5019259962379339, _h0.28978710904124194)","@class":"Expression","@id":"162"},"handleIn":{"jsCode":"Vec(0.00, 0.00)","@class":"Expression","@id":"163"},"handleOut":{"jsCode":"Vec(0.00, 0.00)","@class":"Expression","@id":"164"},"@id":"165"},"isEnabled":true,"definition":{"@builtin":"AnchorDefinition"},"@class":"Instance","@id":"166"},"@class":"Element","@id":"167"}],"isLocked":false,"isVisible":true,"base":{"args":{"@id":"168"},"isEnabled":true,"definition":{"@builtin":"PathDefinition"},"@class":"Instance","@id":"169"},"@class":"Element","@id":"170"},{"name":"Path 2","transform":null,"modifiers":[{"args":{"repetitions":{"jsCode":"3","@class":"Expression","@id":"171"},"@id":"172"},"isEnabled":true,"definition":{"@builtin":"RotationalRepeatDefinition"},"@class":"Instance","@id":"173"}],"fill":null,"stroke":{"args":{"@id":"174"},"isEnabled":true,"definition":{"@builtin":"StrokeDefinition"},"@class":"Instance","@id":"175"},"children":[{"name":"Anchor 9","transform":null,"modifiers":[],"fill":null,"stroke":null,"children":[],"isLocked":false,"isVisible":true,"base":{"args":{"position":{"jsCode":"Vec(_h1.0038519924758678, 0.5795742180824851)","@class":"Expression","@id":"176"},"handleIn":{"jsCode":"Vec(0.00, 0.00)","@class":"Expression","@id":"177"},"handleOut":{"jsCode":"Vec(0.00, 0.00)","@class":"Expression","@id":"178"},"@id":"179"},"isEnabled":true,"definition":{"@builtin":"AnchorDefinition"},"@class":"Instance","@id":"180"},"@class":"Element","@id":"181"},{"name":"Anchor 10","transform":null,"modifiers":[],"fill":null,"stroke":null,"children":[],"isLocked":false,"isVisible":true,"base":{"args":{"position":{"jsCode":"Vec(0.00, _h1.159148436164969)","@class":"Expression","@id":"182"},"handleIn":{"jsCode":"Vec(0.00, 0.00)","@class":"Expression","@id":"183"},"handleOut":{"jsCode":"Vec(0.00, 0.00)","@class":"Expression","@id":"184"},"@id":"185"},"isEnabled":true,"definition":{"@builtin":"AnchorDefinition"},"@class":"Instance","@id":"186"},"@class":"Element","@id":"187"}],"isLocked":false,"isVisible":true,"base":{"args":{"@id":"188"},"isEnabled":true,"definition":{"@builtin":"PathDefinition"},"@class":"Instance","@id":"189"},"@class":"Element","@id":"190"}],"isLocked":false,"isVisible":true,"base":{"args":{"@id":"191"},"isEnabled":true,"definition":{"@builtin":"GroupDefinition"},"@class":"Instance","@id":"192"},"@class":"Element","@id":"193"},"@class":"Component","@id":"194"}],"modifiers":[],"parameters":[],"focusedComponent":{"@ref":"194"},"focusedNode":{"parent":null,"source":{"@ref":"193"},"@class":"Node","@id":"195"},"selectedItems":[],"expandedNodes":[{"parent":{"parent":null,"source":{"@ref":"193"},"@class":"Node","@id":"196"},"source":{"@ref":"72"},"@class":"Node","@id":"197"},{"parent":{"parent":{"parent":null,"source":{"@ref":"193"},"@class":"Node","@id":"198"},"source":{"@ref":"72"},"@class":"Node","@id":"199"},"source":{"@ref":"33"},"@class":"Node","@id":"200"},{"parent":{"parent":{"parent":null,"source":{"@ref":"193"},"@class":"Node","@id":"201"},"source":{"@ref":"72"},"@class":"Node","@id":"202"},"source":{"@ref":"51"},"@class":"Node","@id":"203"},{"parent":{"parent":{"parent":null,"source":{"@ref":"193"},"@class":"Node","@id":"204"},"source":{"@ref":"72"},"@class":"Node","@id":"205"},"source":{"@ref":"69"},"@class":"Node","@id":"206"},{"parent":{"parent":null,"source":{"@ref":"193"},"@class":"Node","@id":"207"},"source":{"@ref":"190"},"@class":"Node","@id":"208"},{"parent":{"parent":null,"source":{"@ref":"193"},"@class":"Node","@id":"209"},"source":{"@ref":"112"},"@class":"Node","@id":"210"},{"parent":{"@ref":"209"},"source":{"@ref":"92"},"@class":"Node","@id":"211"},{"parent":{"parent":null,"source":{"@ref":"193"},"@class":"Node","@id":"212"},"source":{"@ref":"150"},"@class":"Node","@id":"213"},{"parent":{"@ref":"195"},"source":{"@ref":"170"},"@class":"Node","@id":"214"}],"editingModifiers":[],"_utransformCenter":null,"isGridSnappingEnabled":false,"isGeometrySnappingEnabled":true,"isTransformBoxEnabled":true,"@class":"Project","@id":"215"}}
-->

<svg xmlns="http://www.w3.org/2000/svg" width="384.1" height="332.837" viewBox="0 0 288.075 249.628"><g fill="none" stroke="#000" stroke-width=".72"><path d="M.037 249.12 144.037 0l.293.212L288.075 249.48l-.33.148L0 249.48M47.899 166.32l47.58 83.209M192.107 83.061l-95.851-.399M192.107 249.579l48.27-82.81"/><g><path d="M144.037 166.32 107.9 145.455M144.037 166.32l36.139-20.865M144.037 166.32v41.73"/></g><g><path d="M71.76 208.05 144.037 82.86M144.037 82.861l72.278 125.188M216.315 208.05H71.76"/></g></g></svg>
